themes/default/static/images/logo.svg

<svg fill="none" height="30" viewBox="0 0 96 30" width="96" xmlns="http://www.w3.org/2000/svg"><g fill="#000"><path d="m13.8702 16.792h-8.25596l-2.24 6.208h-2.623996l8.479996-22.751999h1.21596l8.512 22.751999h-2.784zm-7.39196-2.304h6.59196l-2.496-6.816-.79995-3.392h-.03201l-.8 3.456z"/><path d="m22.317 7h1.76l.48 1.92h.128c.4907-.74667 1.12-1.312 1.888-1.696.7893-.40533 1.6853-.608 2.688-.608 2.1333 0 3.7227.62933 4.768 1.888s1.568 3.3173 1.568 6.176c0 1.344-.1813 2.56-.544 3.648-.3413 1.0667-.832 1.9733-1.472 2.72s-1.4187 1.3227-2.336 1.728c-.896.4053-1.8987.608-3.008.608-.7893 0-1.4187-.0533-1.888-.16-.448-.0853-.9387-.2453-1.472-.48v6.656h-2.56zm6.464 1.856c-1.088 0-1.952.288-2.592.864-.6187.5547-1.056 1.408-1.312 2.56v7.936c.384.2987.8213.5333 1.312.704.4907.1493 1.1413.224 1.952.224 1.472 0 2.6347-.544 3.488-1.632.8747-1.1093 1.312-2.7307 1.312-4.864 0-.8747-.0747-1.664-.224-2.368-.1493-.7253-.3947-1.3333-.736-1.824-.32-.512-.7467-.90667-1.28-1.184-.512-.27733-1.152-.416-1.92-.416z"/><path d="m49.6455 23v-9.056c0-.8533-.0427-1.5893-.128-2.208-.064-.64-.2027-1.1733-.416-1.6-.2133-.42667-.5227-.74667-.928-.96-.384-.21333-.896-.32-1.536-.32-.9813 0-1.8027.29867-2.464.896-.64.5973-1.088 1.344-1.344 2.24v11.008h-2.56v-16h1.792l.48 1.952h.128c.576-.68267 1.2373-1.23733 1.984-1.664.768-.448 1.76-.672 2.976-.672 1.024 0 1.856.20267 2.496.608.6613.384 1.1733 1.06667 1.536 2.048.4907-.832 1.1627-1.48267 2.016-1.952.8747-.46933 1.856-.704 2.944-.704.896 0 1.6533.10667 2.272.32.6187.192 1.1307.544 1.536 1.056s.6933 1.20533.864 2.08c.192.8747.288 1.984.288 3.328v9.6h-2.56v-9.632c0-.768-.0427-1.4293-.128-1.984-.064-.576-.2133-1.0453-.448-1.408-.2133-.384-.5227-.66133-.928-.832-.384-.192-.896-.288-1.536-.288-1.0667 0-1.8987.29867-2.496.896-.5973.5973-1.024 1.4507-1.28 2.56v10.688z"/><path d="m71.5822 17.368.896 3.072h.16l.704-3.104 3.104-10.336h2.592l-4.736 14.368c-.3626 1.0453-.7253 2.0587-1.088 3.04-.3413.9813-.7253 1.856-1.152 2.624-.4266.768-.9066 1.376-1.44 1.824-.5333.4693-1.152.704-1.856.704-.768 0-1.3973-.1067-1.888-.32l.448-2.208c.2774.1067.544.16.8.16.5974 0 1.1734-.32 1.728-.96.5547-.6187 1.0134-1.696 1.376-3.232l-6.432-16h2.944z"/><path d="m82.4245 7h1.76l.48 1.92h.128c.4907-.74667 1.12-1.312 1.888-1.696.7893-.40533 1.6853-.608 2.688-.608 2.1333 0 3.7227.62933 4.768 1.888s1.568 3.3173 1.568 6.176c0 1.344-.1813 2.56-.544 3.648-.3413 1.0667-.832 1.9733-1.472 2.72s-1.4187 1.3227-2.336 1.728c-.896.4053-1.8987.608-3.008.608-.7893 0-1.4187-.0533-1.888-.16-.448-.0853-.9387-.2453-1.472-.48v6.656h-2.56zm6.464 1.856c-1.088 0-1.952.288-2.592.864-.6187.5547-1.056 1.408-1.312 2.56v7.936c.384.2987.8213.5333 1.312.704.4907.1493 1.1413.224 1.952.224 1.472 0 2.6347-.544 3.488-1.632.8747-1.1093 1.312-2.7307 1.312-4.864 0-.8747-.0747-1.664-.224-2.368-.1493-.7253-.3947-1.3333-.736-1.824-.32-.512-.7467-.90667-1.28-1.184-.512-.27733-1.152-.416-1.92-.416z"/></g></svg>

<svg width="96" height="30" viewBox="0 0 96 30" fill="none" xmlns="http://www.w3.org/2000/svg">
<path d="M13.8702 16.792H5.61424L3.37424 23H0.750244L9.23024 0.248001H10.4462L18.9582 23H16.1742L13.8702 16.792ZM6.47824 14.488H13.0702L10.5742 7.672L9.77425 4.28H9.74224L8.94224 7.736L6.47824 14.488Z" fill="black"/>
<path d="M22.317 7H24.077L24.557 8.92H24.685C25.1757 8.17333 25.805 7.608 26.573 7.224C27.3623 6.81867 28.2583 6.616 29.261 6.616C31.3943 6.616 32.9837 7.24533 34.029 8.504C35.0743 9.76267 35.597 11.8213 35.597 14.68C35.597 16.024 35.4157 17.24 35.053 18.328C34.7117 19.3947 34.221 20.3013 33.581 21.048C32.941 21.7947 32.1623 22.3707 31.245 22.776C30.349 23.1813 29.3463 23.384 28.237 23.384C27.4477 23.384 26.8183 23.3307 26.349 23.224C25.901 23.1387 25.4103 22.9787 24.877 22.744V29.4H22.317V7ZM28.781 8.856C27.693 8.856 26.829 9.144 26.189 9.72C25.5703 10.2747 25.133 11.128 24.877 12.28V20.216C25.261 20.5147 25.6983 20.7493 26.189 20.92C26.6797 21.0693 27.3303 21.144 28.141 21.144C29.613 21.144 30.7757 20.6 31.629 19.512C32.5037 18.4027 32.941 16.7813 32.941 14.648C32.941 13.7733 32.8663 12.984 32.717 12.28C32.5677 11.5547 32.3223 10.9467 31.981 10.456C31.661 9.944 31.2343 9.54933 30.701 9.272C30.189 8.99467 29.549 8.856 28.781 8.856Z" fill="black"/>
<path d="M49.6455 23V13.944C49.6455 13.0907 49.6028 12.3547 49.5175 11.736C49.4535 11.096 49.3148 10.5627 49.1015 10.136C48.8882 9.70933 48.5788 9.38933 48.1735 9.176C47.7895 8.96267 47.2775 8.856 46.6375 8.856C45.6562 8.856 44.8348 9.15467 44.1735 9.752C43.5335 10.3493 43.0855 11.096 42.8295 11.992V23H40.2695V7H42.0615L42.5415 8.952H42.6695C43.2455 8.26933 43.9068 7.71467 44.6535 7.288C45.4215 6.84 46.4135 6.616 47.6295 6.616C48.6535 6.616 49.4855 6.81867 50.1255 7.224C50.7868 7.608 51.2988 8.29067 51.6615 9.272C52.1522 8.44 52.8242 7.78933 53.6775 7.32C54.5522 6.85067 55.5335 6.616 56.6215 6.616C57.5175 6.616 58.2748 6.72267 58.8935 6.936C59.5122 7.128 60.0242 7.48 60.4295 7.992C60.8348 8.504 61.1228 9.19733 61.2935 10.072C61.4855 10.9467 61.5815 12.056 61.5815 13.4V23H59.0215V13.368C59.0215 12.6 58.9788 11.9387 58.8935 11.384C58.8295 10.808 58.6802 10.3387 58.4455 9.976C58.2322 9.592 57.9228 9.31467 57.5175 9.144C57.1335 8.952 56.6215 8.856 55.9815 8.856C54.9148 8.856 54.0828 9.15467 53.4855 9.752C52.8882 10.3493 52.4615 11.2027 52.2055 12.312V23H49.6455Z" fill="black"/>
<path d="M71.5822 17.368L72.4782 20.44H72.6382L73.3422 17.336L76.4462 7H79.0382L74.3022 21.368C73.9396 22.4133 73.5769 23.4267 73.2142 24.408C72.8729 25.3893 72.4889 26.264 72.0622 27.032C71.6356 27.8 71.1556 28.408 70.6222 28.856C70.0889 29.3253 69.4702 29.56 68.7662 29.56C67.9982 29.56 67.3689 29.4533 66.8782 29.24L67.3262 27.032C67.6036 27.1387 67.8702 27.192 68.1262 27.192C68.7236 27.192 69.2996 26.872 69.8542 26.232C70.4089 25.6133 70.8676 24.536 71.2302 23L64.7982 7H67.7422L71.5822 17.368Z" fill="black"/>
<path d="M82.4245 7H84.1845L84.6645 8.92H84.7925C85.2832 8.17333 85.9125 7.608 86.6805 7.224C87.4698 6.81867 88.3658 6.616 89.3685 6.616C91.5018 6.616 93.0912 7.24533 94.1365 8.504C95.1818 9.76267 95.7045 11.8213 95.7045 14.68C95.7045 16.024 95.5232 17.24 95.1605 18.328C94.8192 19.3947 94.3285 20.3013 93.6885 21.048C93.0485 21.7947 92.2698 22.3707 91.3525 22.776C90.4565 23.1813 89.4538 23.384 88.3445 23.384C87.5552 23.384 86.9258 23.3307 86.4565 23.224C86.0085 23.1387 85.5178 22.9787 84.9845 22.744V29.4H82.4245V7ZM88.8885 8.856C87.8005 8.856 86.9365 9.144 86.2965 9.72C85.6778 10.2747 85.2405 11.128 84.9845 12.28V20.216C85.3685 20.5147 85.8058 20.7493 86.2965 20.92C86.7872 21.0693 87.4378 21.144 88.2485 21.144C89.7205 21.144 90.8832 20.6 91.7365 19.512C92.6112 18.4027 93.0485 16.7813 93.0485 14.648C93.0485 13.7733 92.9738 12.984 92.8245 12.28C92.6752 11.5547 92.4298 10.9467 92.0885 10.456C91.7685 9.944 91.3418 9.54933 90.8085 9.272C90.2965 8.99467 89.6565 8.856 88.8885 8.856Z" fill="black"/>
</svg>
